X:3453
T:Hora de la Goicea
O:Rumänien
Z:Finns på LP:n "Andra resan" Orientexpressen
L:1/16
M:2/4
I:linebreak $
K:Dm
Q:1/4=100
d^cB2 BAB^c|dB!mordent!G2 G^AB^c|d^cB2 BAB^c|dBG2 D2 z2|$
GABG ABGA|BGAB ^cdef| gfef ed^cd|^cBAB A2 z2:|$
^cde2 A2f2|ed^cd e2>f2|gfef ed^cd|^cBAB A^ce2|$
^cde2 A2f2|ed^cd e2>f2|gfef ed^cd|^cBAB A2 z2:|] $
g2 g4 fe|^cdef gfef|gfef ed^cd|^cBAB Ace2| $
g2 g4 fe|^cdef a4|gfef ed^cd|^cBAB A4:|]
(:musicend:)
(:music:)
